X:40
T:Joe Peter
R:air
C:Jerry Holland
O:Cape Breton Island
S:http://www.cranfordpub.com
Z:psc, (re-formatted,updated 9/19/04)
N:http://www.jerryholland.com
H:                                                        copyrights Fiddlesticksmusic, SOCAN
Q:244
L:1/8
M:3/4
K:Em
E3 G B2|B3 A G2|F G2 z F2|E6|B3 d e2|g3 a b2|B e2 z e2|e4 ga|
{g/a/} b3 g e2|g3 a b2|a b2 z a2|d4 ef|\
g3 f e2|d B2 z A2|F G2 z F2|E4 z2:|
|: G3 B d2|d3 B d2|e3 d B2|d4 z2 |G3 B d2|d3 B d2|B d2 z e2|1e4 z2|
G3 B d2|d3 B d2|e3 d B2|d3 z gf|e3 d B2|B3 A B2|F G2 z F2|E6:|
[2e4 ga|{g/a/} b3 g e2|g3 a b2|a b2 z a2|\
d4 ef|g3 f e2|d B2 z A2|F G2 z F2|E4 z2|]
